packages/ffe-icons/icons/filled/sm/forest.svg

<svg xmlns="http://www.w3.org/2000/svg" height="20" viewBox="0 -960 960 960" width="20"><path d="M524.001-148.155v-68.462h103.998v70.001q0 13.011-8.777 21.813t-21.751 8.802h-41.053q-13.628 0-23.022-9.245-9.395-9.244-9.395-22.909Zm-192 0v-111.846H145.156q-18.792 0-28.281-16.577-9.488-16.577.358-32.654l123.77-190.769h-7.693q-16.577 0-24.865-14.27-8.289-14.269.558-28.345l146.842-242.515q4.848-7.482 12.649-11.405 7.801-3.923 15.602-3.923t15.506 3.923q7.705 3.923 12.553 11.405l146.842 242.515q8.847 14.076.558 28.345-8.288 14.27-24.865 14.27h-7.693l121.385 190.769q9.846 16.077 1.054 32.654-8.793 16.577-27.977 16.577h-185.46v113.122q0 12.974-8.777 21.926-8.777 8.952-21.751 8.952h-41.053q-13.628 0-23.022-9.245-9.395-9.244-9.395-22.909Zm397.765-111.846L605.535-456.617h8.462q16.733 0 24.751-13.885 8.018-13.884-.828-27.961L504.923-716.151l43.154-68.847q5.116-7.615 12.5-11.538 7.385-3.923 15.269-3.923 7.885 0 15.673 3.923t12.636 11.405l146.842 242.515q8.847 14.076.558 28.345-8.288 14.27-24.865 14.27h-7.693l123.77 190.769q9.846 16.077.358 32.654-9.489 16.577-28.281 16.577h-85.078Z"/></svg>

<svg xmlns="http://www.w3.org/2000/svg" height="20" viewBox="0 -960 960 960" width="20"><path d="M524-148.16v-68.46h104v70q0 13.01-8.78 21.82-8.77 8.8-21.75 8.8h-41.05q-13.63 0-23.02-9.25-9.4-9.24-9.4-22.91Zm-192 0V-260H145.16q-18.8 0-28.28-16.58-9.49-16.58.35-32.65L241-500h-7.69q-16.58 0-24.87-14.27-8.28-14.27.56-28.35l146.84-242.51q4.85-7.48 12.65-11.41 7.8-3.92 15.61-3.92 7.8 0 15.5 3.92 7.71 3.93 12.56 11.41L559-542.62q8.84 14.08.56 28.35Q551.27-500 534.69-500H527l121.38 190.77q9.85 16.07 1.06 32.65-8.8 16.58-27.98 16.58H436v113.12q0 12.97-8.78 21.93-8.77 8.95-21.75 8.95h-41.05q-13.63 0-23.02-9.25-9.4-9.24-9.4-22.91ZM729.77-260 605.53-456.62H614q16.73 0 24.75-13.88 8.02-13.89-.83-27.96l-133-217.69L548.08-785q5.11-7.61 12.5-11.54 7.38-3.92 15.27-3.92 7.88 0 15.67 3.92 7.79 3.93 12.64 11.41L751-542.62q8.84 14.08.56 28.35Q743.27-500 726.69-500H719l123.77 190.77q9.84 16.07.35 32.65Q833.64-260 814.84-260h-85.07Z"/></svg>
